X:5940
T:Gan Ainm
R:jig
S:Declan Folan
H:
N:
D:Fleadh Concert 1990
Z:Adrian Scahill
M:6/8
L:1/8
K:G
DBA B2d|edB AGF|GBA B3|AGE EGE|\
DBA B2d|edB AGF|GBA B3|AGF G3:||\
e2g edg|edg ed^c|d3 dge|dge dBG|\
cEc dFd|gdB AGF|GBA B3|AGF G3:||
